X: 14
T: Galway, The
Z: David VanVranken
S: https://thesession.org/tunes/38#setting51445
R: hornpipe
M: 4/4
L: 1/8
K: Dmaj
|:DA FA dAFD|=C2E2 G2 E2|DA FA dcdf|edcB AGFE|
DA FA dAFD|=C2E2G2E2|AdcB AGFE|1D2 A,2 D4 :|2D2 A,2 D2||
|:de|fe fg fedc|BABc B2 cd|ed ef edcB|A2 ce a2 (3ABc | )|
dc de fedF|GFGA BdcB|AdcB AGFE|D2 A,2 D2:|

